X:39
T:Széles a balaton
O:Sárpilis (Tolna)
Q:"Tempo guisto"
M:4/4
L:1/4
K:C
AE G/F/E/D/ | A,<C ED | A,2 A, z | 
ce d/c/A/B/ | c<d c A | E2 E z | 
ce d/c/A/B/ | c<d c A | E2 G z | 
AE G/F/E/D/ | A,C E<D | A,2 A, z | 

